packages/ffe-icons/icons/open/300/sm/window.svg

<svg xmlns="http://www.w3.org/2000/svg" height="20" viewBox="0 -960 960 960" width="20"><path d="M228.309-164.001q-25.923 0-45.115-19.193-19.193-19.192-19.193-45.115v-503.382q0-26.623 19.193-45.465 19.192-18.843 45.115-18.843h503.382q26.623 0 45.465 18.843 18.843 18.842 18.843 45.465v503.382q0 25.923-18.843 45.115-18.842 19.193-45.465 19.193H228.309Zm277.69-290V-216h225.692q5.385 0 8.847-3.462 3.462-3.462 3.462-8.847v-225.692H505.999Zm0-51.998H744v-225.692q0-5.385-3.462-8.847-3.462-3.462-8.847-3.462H505.999v238.001Zm-51.998 0V-744H228.309q-5.385 0-8.847 3.462-3.462 3.462-3.462 8.847v225.692h238.001Zm0 51.998H216v225.692q0 5.385 3.462 8.847 3.462 3.462 8.847 3.462h225.692v-238.001Z"/></svg>

<svg xmlns="http://www.w3.org/2000/svg" height="20" viewBox="0 -960 960 960" width="20"><path d="M228.31-164q-25.92 0-45.12-19.19Q164-202.39 164-228.31v-503.38q0-26.62 19.19-45.47Q202.39-796 228.31-796h503.38q26.62 0 45.47 18.84Q796-758.31 796-731.69v503.38q0 25.92-18.84 45.12Q758.31-164 731.69-164H228.31ZM506-454v238h225.69q5.39 0 8.85-3.46t3.46-8.85V-454H506Zm0-52h238v-225.69q0-5.39-3.46-8.85t-8.85-3.46H506v238Zm-52 0v-238H228.31q-5.39 0-8.85 3.46t-3.46 8.85V-506h238Zm0 52H216v225.69q0 5.39 3.46 8.85t8.85 3.46H454v-238Z"/></svg>
